style-guide/assets/wds-icons-alert-tiny.svg

<svg xmlns="http://www.w3.org/2000/svg" xmlns:xlink="http://www.w3.org/1999/xlink" width="12" height="12" viewBox="0 0 12 12">
  <defs>
    <path id="alert-a" d="M7.0004095,9.99255573 C7.0004095,9.43850111 6.5534095,8.98883359 6.0004095,8.98883359 C5.4474095,8.98883359 5.0004095,9.43850111 5.0004095,9.99255573 L2.6184095,9.99255573 L6.0004095,3.20237548 L9.3824095,9.99255573 L7.0004095,9.99255573 Z M11.8954095,10.5476141 L6.8954095,0.510392706 C6.5554095,-0.170130902 5.4454095,-0.170130902 5.1054095,0.510392706 L0.105409497,10.5476141 C-0.0495905031,10.8577642 -0.0325905031,11.2281377 0.149409497,11.5242357 C0.332409497,11.81933 0.653409497,12 1.0004095,12 L11.0004095,12 C11.3474095,12 11.6684095,11.81933 11.8514095,11.5242357 C12.0334095,11.2281377 12.0504095,10.8577642 11.8954095,10.5476141 Z M5.0001095,5.97766718 L5.0001095,6.98138932 C5.0001095,7.53544394 5.4471095,7.98511145 6.0001095,7.98511145 C6.5531095,7.98511145 7.0001095,7.53544394 7.0001095,6.98138932 L7.0001095,5.97766718 C7.0001095,5.42361256 6.5531095,4.97394505 6.0001095,4.97394505 C5.4471095,4.97394505 5.0001095,5.42361256 5.0001095,5.97766718"/>
  </defs>
  <use fill-rule="evenodd" xlink:href="#alert-a"/>
</svg>

<svg viewBox="0 0 12 12" xmlns="http://www.w3.org/2000/svg">
  <path d="M7 9.993c0-.554-.447-1.004-1-1.004-.553 0-1 .45-1 1.004H2.618L6 3.203l3.382 6.79H7zm4.895.555L6.895.51c-.34-.68-1.45-.68-1.79 0l-5 10.038A1.002 1.002 0 0 0 1 12h10a1.002 1.002 0 0 0 .895-1.452zM5 5.978V6.98c0 .554.447 1.004 1 1.004.553 0 1-.45 1-1.004V5.978c0-.554-.447-1.004-1-1.004-.553 0-1 .45-1 1.004" fill-rule="evenodd"/>
</svg>
